X:1
T:Gentle Voices, What Hath Stirred Ye?
T:Gentle Voices, What Hath Stirred Ye?
T:Arranged and partly composed
%%score [ 1 2 3 4 ]
L:1/8
M:4/4
K:Ab
V:1 treble nm="Soprano"
V:2 treble nm="Alto"
V:3 treble-8 nm="Tenor"
V:4 bass nm="Bass"
V:1
 A3 A G2 A2 | A2 A2 A2 A2 | c2 B2 A2 A2 | A2 (Bc) e3 z | A3 A G2 A2 | A2 A2 A2 A2 | A3 A c2 e2 | %7
w: 1.Gen- tle voi- ces|what hath stirr'd ye,|com- ing from the|bu- ried _ past?|In the dreams of|night I hear ye,|And a spell was|
w: 2.Gen- tle voi- ces,|ye would wak- en|many a cheer- ing|hope in _ me;|When I seem'd by|all for- sa- ken,|Then my thoughts would|
 e2 e2 c3 z | e3 =d e2 B2 | B2 B2 B2 B2 | e3 =d e2 B2 | B2 B2 B4 | A3 A G2 A2 | A2 A2 A2 A2 | %14
w: o'er me cast.|Friends de- part- ed|stand in glo- ry.|Smil- ing in their|bright ar- ray;|Each a theme of|ten- der sto- ry,|
w: turn to thee.|Of my all though|fate be- reave me,|What I most re-|lied up- on,|Still, with gen- tle|voi- ces left me,|
 A3 A A2 A2 | A2 A2 A2 G z | A3 B c2 (df) | e2 d2 c4 |] %18
w: Let my heart to|bliss a- way, _|Let my heart to _|bliss a- way.|
w: I could ne- ver|feel a- lone, _|I could ne- ver _|feel a- lone.|
V:2
 E3 E D2 (CE) | E2 D2 E2 C2 | E2 E2 F2 (Ad) | c2 (BA) G3 z | E3 E D2 (CE) | E2 D2 E2 C2 | %6
w: 1.Gen- tle voi- ces _|what hath stirr'd ye,|com- ing from the _|bu- ried _ past?|In the dreams of _|night I hear ye,|
w: 2.Gen- tle voi- ces, _|ye would wak- en|many a cheer- ing _|hope in _ me;|When I seem'd by _|all for- sa- ken,|
 E3 C E2 A2 | (AG) (BA) E3 z | G3 A B2 G2 | F2 (GA) G2 G2 | G3 A B2 G2 | F2 F2 G4 | E3 E D2 (CE) | %13
w: And a spell was|o'er _ me _ cast.|Friends de- part- ed|stand in _ glo- ry.|Smil- ing in their|bright ar- ray;|Each a theme of _|
w: Then my thoughts would|turn _ to _ thee.|Of my all though|fate be- * reave me,|What I most re-|lied up- on,|Still, with gen- tle _|
 E2 D2 E2 C2 | D3 D E2 F2 | A2 F2 E3 z | E3 E F2 (FB) | A2 G2 A4 |] %18
w: ten- der sto- ry,|Let my heart to|bliss a- way,|Let my heart to _|bliss a- way.|
w: voi- ces left me,|I could ne- ver|feel a- lone,|I could ne- ver _|feel a- lone.|
V:3
 c3 c B2 A2 | G2 F2 A2 E2 | E2 E2 A2 (cf) | e2 (dc) B3 z | c3 c B2 A2 | G2 F2 A2 E2 | E3 E A2 c2 | %7
w: 1.Gen- tle voi- ces|what hath stirr'd ye,|com- ing from the _|bu- ried _ past?|In the dreams of|night I hear ye,|And a spell was|
w: 2.Gen- tle voi- ces,|ye would wak- en|many a cheer- ing _|hope in _ me;|When I seem'd by|all for- sa- ken,|Then my thoughts would|
 (cB) (dc) A3 z | B3 B B2 e2 | =d2 (ef) B2 e2 | B3 B B2 e2 | (e=d) (cd) e3 _d | c3 c B2 A2 | %13
w: o'er _ me _ cast.|Friends de- part- ed|stand in _ glo- ry.|Smil- ing in their|bright _ ar- * ray; *|Each a theme of|
w: turn _ to _ thee.|Of my all though|fate be- * reave me,|What I most re-|lied _ up- * on, *|Still, with gen- tle|
 G2 F2 A2 E2 | F3 F E2 (Af) | e2 (AB) c2 B z | c3 e A2 (Bd) | c2 B2 A4 |] %18
w: ten- der sto- ry,|Let my heart to _|bliss a- * way, *|Let my heart to _|bliss a- way.|
w: voi- ces left me,|I could ne- ver _|feel a- * lone, *|I could ne- ver _|feel a- lone.|
V:4
 A,,3 A,, B,,2 C,2 | D,2 D,2 C,2 A,,2 | A,2 G,2 F,2 F,2 | D,2 E,2 E,3 z | A,,3 A,, B,,2 C,2 | %5
w: 1.Gen- tle voi- ces|what hath stirr'd ye,|com- ing from the|bu- ried past?|In the dreams of|
w: 2.Gen- tle voi- ces,|ye would wak- en|many a cheer- ing|hope in me;|When I seem'd by|
 D,2 D,2 C,2 A,,2 | C,3 A,, A,2 A,2 | E,2 E,2 A,,3 z | E,3 F, G,2 E,2 | B,2 B,,2 E,2 E,2 | %10
w: night I hear ye,|And a spell was|o'er me cast.|Friends de- part- ed|stand in glo- ry.|
w: all for- sa- ken,|Then my thoughts would|turn to thee.|Of my all though|fate be- reave me,|
 E,3 F, G,2 E,2 | B,2 B,,2 E,4 | A,,3 A,, B,,2 C,2 | D,2 D,2 C,2 A,,2 | D,3 D, C,2 (F,D,) | %15
w: Smil- ing in their|bright ar- ray;|Each a theme of|ten- der sto- ry,|Let my heart to _|
w: What I most re-|lied up- on,|Still, with gen- tle|voi- ces left me,|I could ne- ver _|
 C,2 D,2 E,3 z | A,3 G, F,2 (D,B,,) | E,2 E,2 A,,4 |] %18
w: bliss a- way,|Let my heart to _|bliss a- way.|
w: feel a- lone,|I could ne- ver _|feel a- lone.|

